X:1
T:Title
%%score ( 1 2 ) 3
L:1/8
Q:1/4=93
M:3/4
K:Ab
V:1 treble nm="Grand Piano, Soprano"
V:2 treble 
V:3 bass nm="Choir Pad, Humboldt, H. W. Porter"
V:1
 [CE]2 [CE][CA] [Ec]2- | [Ec][Ec] [Fc]>[FB] [FB]2- | [FB][FA] [EG]>[DF] [DG]>[DF] | %3
w: By~H.~W.~Porter,~1899 * * *|||
 [DG]>[DF] F2 E2 | z [CE] [CE][CA] c-[Ac-] | [Gc][=Ec] [Fc][Fd] [FA]2- | %6
w: |||
 [FA][=EB] [_Ec]>[CA] [Ec]>[CA] | [Ec]>[DG] [CA]4 | [_GA]2 [Fd]>[Fd] [Fd]2- | %9
w: |||
 [Fd][Fd] [Fd]>[Ec] [Ec]2- | [Ec][Ec] [=DB]>[EB] [FB][GB] | [Ac][A=d] e-[_de-] [Be-][Ge] | %12
w: |||
 ED [CE][CA] [Ec]2 | [_Ge]2 [Fe][Fd] [FA]2- | [FA][=EB] [_Ec]>[CA] [Ec]>[CA] | [DB]>[DG] [CA]4- | %16
w: ||||
 [CA]4 z2 |] %17
w: |
V:2
 x6 | x6 | x6 | z2 C4 | z2 z2 .E2 | x6 | x6 | x6 | x6 | x6 | x6 | z2 G4 | x6 | x6 | x6 | x6 | x6 |] %17
V:3
 z2 A,,E, [A,C]E, | [A,C]E, [D,,D,]F, [B,D]F, | [B,D]F, E,,E, B,E, | B,E, A,,E, A,E, | %4
 A,E, A,,E, [A,C]E, | [A,C]E, D,F, [A,D]F, | [A,D]=E, [_E,A,C]2 [E,A,C]2 | [E,,E,]2 [A,,E,]4 | %8
 [A,C]2 [D,D]>[D,A,] [D,A,]2- | [D,A,][D,A,] [A,,A,]>[A,,A,] [A,,A,]2- | %10
 [A,,A,][A,,A,] [B,,F,]>[B,,G,] [B,,A,][B,,B,] | [B,,B,][B,,B,] [E,B,]4 | %12
 [E,G,]2 [A,,A,][A,,E,] [A,,A,]2 | [C,A,]2 [D,A,][D,A,] [D,D]2- | [D,D][D,A,] [E,A,]>E, [E,A,]>E, | %15
 [E,A,]>[E,B,] [A,,A,]4- | [A,,A,]4 z2 |] %17

